public/advantage-plan.svg

<svg width="116" height="98" viewBox="0 0 116 98" fill="none" xmlns="http://www.w3.org/2000/svg">
<path d="M19.2441 31.1589C21.3064 29.9277 23.5808 29.0933 25.9501 28.6989C30.2601 18.1989 37.9321 8.39887 46.7101 3.33187C58.7571 -3.61813 68.7411 0.677854 70.7521 12.7479C72.6555 10.5055 74.9126 8.5893 77.4341 7.07488C85.7871 2.25288 92.5571 6.15486 92.5571 15.7839C92.5571 25.4129 85.787 37.1359 77.438 41.9519L71.6931 45.2699L72.235 45.5809C72.765 45.8879 72.9281 46.7149 72.6351 47.6899C72.3575 48.6418 71.7479 49.4627 70.9171 50.0039L66.2931 52.6749V72.0479C66.2584 72.6934 66.0718 73.3216 65.7486 73.8814C65.4254 74.4413 64.9747 74.917 64.433 75.2699L50.4661 83.3329C49.4371 83.9329 48.6061 83.4499 48.6061 82.2619V62.8879L43.9821 65.5589C43.2351 65.9919 42.55 65.8589 42.264 65.2239C42.1369 64.792 42.1075 64.3372 42.1779 63.8925C42.2483 63.4478 42.4167 63.0243 42.6711 62.6529L43.2131 61.7099L19.2441 75.5499C8.61508 81.6909 -0.00292969 76.7259 -0.00292969 64.4679C-0.00292969 52.2099 8.61808 37.2959 19.2441 31.1589Z" fill="#F2F5FC"/>
<path d="M40.7449 44.0612C42.808 42.8299 45.0831 41.9952 47.4529 41.6002C51.7609 31.1002 59.433 21.3002 68.21 16.2342C80.26 9.28425 90.242 13.5802 92.254 25.6492C94.1575 23.4066 96.4145 21.4901 98.9359 19.9752C107.289 15.1542 114.06 19.0552 114.06 28.6852C114.06 38.3152 107.29 50.0362 98.9409 54.8532L40.7499 88.4532C30.1199 94.5932 21.5029 89.6292 21.5029 77.3702C21.5029 65.1112 30.1209 50.1962 40.7449 44.0612Z" fill="white"/>
<path d="M54.3114 72.0105C53.5604 72.4435 52.8793 72.3105 52.5933 71.6725C52.4659 71.241 52.4358 70.7867 52.505 70.3421C52.5741 69.8976 52.7409 69.4739 52.9934 69.1015L66.4584 45.7945C67.1844 44.5395 68.3684 43.8585 69.0914 44.2745L82.5564 52.0315C83.0894 52.3385 83.2484 53.1695 82.9634 54.1315C82.6874 55.0861 82.0764 55.9092 81.2424 56.4495L76.6224 59.1165V67.7345L58.9374 77.9475V69.3325L54.3114 72.0105Z" fill="#F2F5FC"/>
<path d="M32.1447 92.1705C35.3844 92.0564 38.5376 91.0959 41.2907 89.3845L99.4807 55.7845C108.114 50.8035 115.137 38.6465 115.137 28.6845C115.137 23.6305 113.376 19.8295 110.178 17.9845C106.98 16.1395 102.791 16.5115 98.4017 19.0445C96.3743 20.2427 94.5164 21.707 92.8777 23.3985C91.6037 18.5175 88.8838 14.9045 85.0778 13.1095C80.2528 10.8305 74.0718 11.6095 67.6718 15.3025C59.1238 20.2395 51.3118 29.6815 46.6868 40.6395C44.4031 41.1009 42.213 41.9422 40.2078 43.1285C29.3008 49.4285 20.4277 64.7855 20.4277 77.3665C20.4277 83.6915 22.6177 88.4385 26.5947 90.7335C28.2843 91.6969 30.1999 92.1929 32.1447 92.1705ZM105.694 18.9795C106.887 18.9614 108.063 19.261 109.102 19.8475C111.607 21.2945 112.987 24.4335 112.987 28.6875C112.987 37.9645 106.446 49.2875 98.4047 53.9245L40.2147 87.5245C35.4147 90.2965 30.9608 90.7775 27.6718 88.8775C24.3828 86.9775 22.5787 82.8965 22.5787 77.3725C22.5787 65.4725 30.9707 50.9525 41.2787 44.9955C43.2262 43.8332 45.3732 43.0437 47.6097 42.6675C47.7935 42.6397 47.9669 42.5648 48.1131 42.45C48.2593 42.3352 48.3732 42.1845 48.4437 42.0125C52.8617 31.2455 60.4517 21.9575 68.7437 17.1685C74.5147 13.8395 79.9887 13.0895 84.1567 15.0575C87.8227 16.7885 90.3197 20.6145 91.1887 25.8305C91.2225 26.0315 91.3127 26.2188 91.4487 26.3705C91.5848 26.5223 91.7611 26.6323 91.9573 26.6877C92.1534 26.7431 92.3612 26.7417 92.5566 26.6836C92.7519 26.6255 92.9268 26.5131 93.0607 26.3595C94.8842 24.2038 97.0498 22.3626 99.4708 20.9095C101.341 19.7363 103.486 19.0711 105.692 18.9795H105.694Z" fill="#005BEA"/>
<path d="M64.1741 75.5536L77.6382 52.2456C78.3612 50.9906 79.5452 50.3096 80.2712 50.7296L93.7362 58.4826C94.2652 58.7886 94.4282 59.6156 94.1362 60.5906C93.8587 61.5425 93.2491 62.3635 92.4182 62.9046L87.7932 65.5756V84.9496C87.7584 85.5948 87.5718 86.2227 87.2486 86.7822C86.9254 87.3417 86.4747 87.8171 85.9332 88.1696L71.9642 96.2336C70.9352 96.8336 70.1042 96.3506 70.1042 95.1626V75.7886L65.4802 78.4596C64.7312 78.8916 64.0482 78.7596 63.7622 78.1236C63.6354 77.6915 63.6065 77.2366 63.6778 76.792C63.7491 76.3474 63.9186 75.9243 64.1741 75.5536Z" fill="#1B69FF"/>
<path d="M71.1296 97.5659C71.6158 97.556 72.0908 97.4181 72.5066 97.1659L86.4746 89.1029C87.181 88.6569 87.7685 88.046 88.1865 87.3228C88.6046 86.5995 88.8407 85.7856 88.8746 84.9509V66.1979L92.9616 63.8369C94.0326 63.1606 94.8188 62.1154 95.1716 60.8989C95.6066 59.4329 95.2556 58.1199 94.2776 57.5529L80.8106 49.7979C80.5617 49.6588 80.2874 49.5711 80.004 49.54C79.7205 49.509 79.4338 49.5351 79.1606 49.6169C78.105 49.9741 77.2271 50.7235 76.7086 51.7099L63.2456 75.0159C62.9002 75.5332 62.6795 76.1235 62.6008 76.7405C62.522 77.3575 62.5873 77.9844 62.7916 78.5719C62.9051 78.8337 63.0728 79.0685 63.2836 79.2609C63.4944 79.4532 63.7435 79.5987 64.0146 79.6879C64.3517 79.7818 64.7049 79.8036 65.0511 79.752C65.3972 79.7003 65.7286 79.5762 66.0236 79.3879L69.0346 77.6489V95.1589C69.0075 95.5793 69.0936 95.9992 69.2839 96.3751C69.4742 96.7509 69.7618 97.0689 70.1166 97.2959C70.4246 97.4735 70.7741 97.5666 71.1296 97.5659ZM79.7806 51.6819H79.7896L93.1996 59.4149C93.2306 59.7081 93.1997 60.0045 93.1086 60.2849C92.9079 60.9729 92.475 61.5701 91.8836 61.9749L87.2606 64.6449C87.0972 64.7392 86.9616 64.8749 86.8673 65.0384C86.773 65.2018 86.7235 65.3872 86.7236 65.5759V84.9499C86.6873 85.4062 86.5495 85.8486 86.3202 86.2448C86.091 86.641 85.7761 86.981 85.3986 87.2399L71.4316 95.3029C71.4271 95.3262 71.417 95.348 71.4023 95.3667C71.3876 95.3854 71.3687 95.4003 71.3472 95.4102C71.3256 95.4202 71.302 95.4248 71.2783 95.4238C71.2545 95.4229 71.2314 95.4162 71.2107 95.4045C71.19 95.3929 71.1724 95.3765 71.1593 95.3567C71.1462 95.3369 71.138 95.3143 71.1354 95.2907C71.1327 95.2671 71.1357 95.2432 71.1441 95.221C71.1525 95.1987 71.166 95.1789 71.1836 95.1629V75.7909C71.1835 75.6022 71.1337 75.4168 71.0392 75.2535C70.9448 75.0901 70.809 74.9545 70.6456 74.8603C70.4821 74.766 70.2967 74.7165 70.108 74.7166C69.9193 74.7167 69.734 74.7665 69.5706 74.8609L64.9466 77.5319C64.8789 77.5744 64.806 77.6081 64.7296 77.6319C64.6673 77.0944 64.7996 76.5523 65.1026 76.1039L78.5676 52.7819C78.6843 52.5256 78.852 52.2958 79.0606 52.1067C79.2692 51.9175 79.5142 51.773 79.7806 51.6819Z" fill="#005BEA"/>
</svg>

<svg xmlns="http://www.w3.org/2000/svg" width="116" height="98" fill="none" viewBox="0 0 116 98"><path fill="#f2f5fc" d="M19.244 31.159a19.3 19.3 0 0 1 6.706-2.46c4.31-10.5 11.982-20.3 20.76-25.367 12.047-6.95 22.031-2.654 24.042 9.416a27 27 0 0 1 6.682-5.673c8.353-4.822 15.123-.92 15.123 8.709s-6.77 21.352-15.119 26.168l-5.745 3.318.542.31c.53.308.693 1.135.4 2.11a4.15 4.15 0 0 1-1.718 2.314l-4.624 2.67v19.374a4.1 4.1 0 0 1-1.86 3.222l-13.967 8.063c-1.029.6-1.86.117-1.86-1.071V62.888l-4.624 2.67c-.747.434-1.432.3-1.718-.334a3.04 3.04 0 0 1 .407-2.571l.542-.943-23.969 13.84C8.615 81.69-.003 76.726-.003 64.468s8.621-27.172 19.247-33.31"/><path fill="#fff" d="M40.745 44.061a19.3 19.3 0 0 1 6.708-2.46c4.308-10.5 11.98-20.3 20.757-25.367 12.05-6.95 22.032-2.654 24.044 9.415a27 27 0 0 1 6.682-5.674c8.353-4.82 15.124-.92 15.124 8.71s-6.77 21.351-15.12 26.168l-58.19 33.6c-10.63 6.14-19.247 1.176-19.247-11.083s8.618-27.174 19.242-33.309"/><path fill="#f2f5fc" d="M54.311 72.01c-.75.433-1.432.3-1.718-.338a3.04 3.04 0 0 1 .4-2.57l13.465-23.308c.726-1.255 1.91-1.935 2.633-1.52l13.465 7.758c.533.307.692 1.138.407 2.1a4.13 4.13 0 0 1-1.72 2.318l-4.62 2.666v8.618L58.936 77.949v-8.615z"/><path fill="#005bea" d="M32.145 92.17a18.56 18.56 0 0 0 9.146-2.785l58.19-33.6c8.633-4.981 15.656-17.138 15.656-27.1 0-5.054-1.761-8.855-4.959-10.7s-7.387-1.473-11.776 1.06a26.4 26.4 0 0 0-5.524 4.353c-1.274-4.88-3.994-8.493-7.8-10.288-4.825-2.28-11.006-1.5-17.406 2.193-8.548 4.936-16.36 14.378-20.985 25.336a20.8 20.8 0 0 0-6.48 2.49c-10.906 6.3-19.78 21.657-19.78 34.238 0 6.325 2.19 11.072 6.168 13.367a10.95 10.95 0 0 0 5.55 1.437m73.549-73.19a6.7 6.7 0 0 1 3.408.867c2.505 1.447 3.885 4.586 3.885 8.84 0 9.278-6.541 20.6-14.582 25.238l-58.19 33.6c-4.8 2.771-9.254 3.252-12.543 1.352-3.29-1.9-5.093-5.98-5.093-11.504 0-11.9 8.392-26.42 18.7-32.378a18.3 18.3 0 0 1 6.33-2.328 1.08 1.08 0 0 0 .835-.654c4.418-10.767 12.008-20.055 20.3-24.844 5.77-3.33 11.245-4.08 15.413-2.112 3.666 1.731 6.163 5.557 7.032 10.774a1.076 1.076 0 0 0 1.872.529 25.8 25.8 0 0 1 6.41-5.45 12.7 12.7 0 0 1 6.221-1.93z"/><path fill="#1b69ff" d="m64.174 75.554 13.464-23.308c.723-1.255 1.907-1.936 2.633-1.516l13.465 7.753c.53.306.692 1.133.4 2.108a4.15 4.15 0 0 1-1.718 2.314l-4.625 2.67V84.95a4.1 4.1 0 0 1-1.86 3.22l-13.969 8.064c-1.029.6-1.86.117-1.86-1.071V75.789l-4.624 2.67c-.749.433-1.432.3-1.718-.335a3.03 3.03 0 0 1 .412-2.57"/><path fill="#005bea" d="M71.13 97.566c.486-.01.96-.148 1.377-.4l13.968-8.063a5.16 5.16 0 0 0 2.4-4.152V66.198l4.087-2.361a5.18 5.18 0 0 0 2.21-2.938c.435-1.466.084-2.78-.894-3.346L80.81 49.798a2.13 2.13 0 0 0-1.65-.181 4.34 4.34 0 0 0-2.452 2.093L63.246 75.016a4.02 4.02 0 0 0-.454 3.556 2.02 2.02 0 0 0 1.223 1.116 2.5 2.5 0 0 0 2.009-.3l3.01-1.74v17.51a2.36 2.36 0 0 0 1.083 2.138c.308.177.657.27 1.013.27m8.65-45.884h.01l13.41 7.733a2.1 2.1 0 0 1-.091.87 3.1 3.1 0 0 1-1.225 1.69l-4.623 2.67a1.07 1.07 0 0 0-.537.93V84.95a3.07 3.07 0 0 1-1.325 2.29l-13.967 8.063a.15.15 0 0 1-.154.12.15.15 0 0 1-.119-.066.15.15 0 0 1 .025-.194V75.79a1.074 1.074 0 0 0-1.613-.93l-4.624 2.67a1 1 0 0 1-.217.1c-.063-.537.07-1.079.373-1.527l13.465-23.322a2.07 2.07 0 0 1 1.213-1.1"/></svg>
